!!! OTL: Berkowitz142
!!! Chapter: 1
!!! Section: I
!!! Page: 32
!!! Mode: 
!!! Encoder: DJB
**kern
*staff1
*I"Piano
=1-
*clefC3
*k[b-e-]
*g:
*met(c|)
*M2/2
8d\L
8d\
8d\
8d\J
8d\L
8g\
8f\
8e-\J
=2
8d\L
8d\
8d\
8d\J
8d\L
8a\
8g\
8f#\J
=3
8g\L
8b-\
8a\
8g\J
8f\L
8e-\J
4d\
=4
8c\L
8e-\
8g\
8g\J
8f#\L
8g\J
4a\
=5
8d\L
8c\
8B-\
8c\J
8d\L
8g\
8f\
8e-\J
=6
!!linebreak:original
8d\L
8c\
8B-\
8c\J
8d\L
8a\
8g\
8f#\J
=7
8g\L
8b-\
8a\
8g\J
8f#\L
8a\
8f#\
8d\J
=8
8g\L
8d\
8c\
8B-\J
8c/L
8A/J
4G/
==
*-
